packages/core/src/svgs/axl.svg

<svg width="24" height="24" viewBox="0 0 24 24" fill="none" xmlns="http://www.w3.org/2000/svg">
<g clip-path="url(#clip0_31_6497)">
<path d="M0 0H24V24H0V0Z" fill="#F0F3FA"/>
<path d="M12.7974 10.9159L16.9845 6.73307L15.3988 5.14307L12.0002 8.53735L8.61021 5.14307L7.02449 6.72878L11.2074 10.9159C11.3114 11.021 11.4352 11.1044 11.5716 11.1614C11.7081 11.2183 11.8545 11.2476 12.0024 11.2476C12.1502 11.2476 12.2966 11.2183 12.4331 11.1614C12.5695 11.1044 12.6933 11.021 12.7974 10.9159ZM18.8574 15.3902L15.4674 11.9959L18.8531 8.60592L17.2674 7.02021L13.0845 11.2031C12.9801 11.307 12.8972 11.4306 12.8406 11.5666C12.7841 11.7027 12.755 11.8486 12.755 11.9959C12.755 12.1433 12.7841 12.2892 12.8406 12.4252C12.8972 12.5613 12.9801 12.6848 13.0845 12.7888L17.2674 16.9759L18.8574 15.3902ZM12.0002 15.4631L15.3859 18.8574L16.9759 17.2716L12.7931 13.0845C12.6888 12.9799 12.5649 12.897 12.4284 12.8403C12.292 12.7837 12.1458 12.7546 11.9981 12.7546C11.8504 12.7546 11.7041 12.7837 11.5677 12.8403C11.4313 12.897 11.3074 12.9799 11.2031 13.0845L7.01592 17.2674L8.60164 18.8574L12.0002 15.4631ZM10.9159 12.7974C11.0204 12.6934 11.1032 12.5699 11.1598 12.4338C11.2163 12.2977 11.2455 12.1518 11.2455 12.0045C11.2455 11.8571 11.2163 11.7113 11.1598 11.5752C11.1032 11.4391 11.0204 11.3156 10.9159 11.2116L6.73307 7.02449L5.14307 8.61021L8.53735 12.0045L5.14307 15.3945L6.72878 16.9802L10.9159 12.7974Z" fill="black"/>
</g>
<defs>
<clipPath id="clip0_31_6497">
<rect width="24" height="24" fill="white"/>
</clipPath>
</defs>
</svg>

<svg xmlns="http://www.w3.org/2000/svg" width="24" height="24" fill="none" viewBox="0 0 24 24"><g clip-path="url(#a)"><path fill="#F0F3FA" d="M0 0h24v24H0z"/><path fill="#000" d="m12.797 10.916 4.188-4.183-1.586-1.59L12 8.537 8.61 5.143 7.024 6.73l4.183 4.187a1.12 1.12 0 0 0 1.59 0m6.06 4.474-3.39-3.394 3.386-3.39-1.586-1.586-4.182 4.183a1.12 1.12 0 0 0 0 1.586l4.182 4.187zM12 15.463l3.386 3.394 1.59-1.585-4.183-4.187a1.123 1.123 0 0 0-1.59 0l-4.187 4.182 1.586 1.59zm-1.084-2.666a1.12 1.12 0 0 0 0-1.585L6.733 7.024 5.143 8.61l3.394 3.395-3.394 3.39L6.73 16.98z"/></g><defs><clipPath id="a"><path fill="#fff" d="M0 0h24v24H0z"/></clipPath></defs></svg>
